svg/color/hsf.svg

<?xml version="1.0" encoding="UTF-8" ?>
<!DOCTYPE svg PUBLIC "-//W3C//DTD SVG 1.1//EN" "http://www.w3.org/Graphics/SVG/1.1/DTD/svg11.dtd">
<svg width="250pt" height="250pt" viewBox="0 0 250 250" version="1.1" xmlns="http://www.w3.org/2000/svg">
<g id="#ffffffff">
<path fill="#ffffff" opacity="1.00" d=" M 0.00 0.00 L 250.00 0.00 L 250.00 250.00 L 0.00 250.00 L 0.00 0.00 M 130.89 10.94 C 123.22 15.87 115.29 20.42 107.78 25.62 C 107.82 55.61 107.93 85.60 107.73 115.59 C 110.10 116.22 112.55 116.39 115.00 116.31 C 124.88 116.17 134.76 116.47 144.64 116.14 C 144.56 78.35 144.59 40.56 144.62 2.77 C 139.72 4.90 135.53 8.31 130.89 10.94 M 42.23 96.71 C 42.37 128.28 42.18 159.84 42.33 191.41 C 44.73 190.25 46.95 188.75 49.09 187.16 C 58.89 180.29 68.88 173.67 78.63 166.72 C 78.57 135.82 78.62 104.92 78.61 74.01 C 66.38 81.41 54.35 89.14 42.23 96.71 M 199.75 79.68 C 190.68 85.30 181.65 91.01 172.57 96.61 C 172.58 128.37 172.60 160.13 172.56 191.89 C 184.84 183.42 197.16 175.01 209.40 166.47 C 209.31 135.65 209.33 104.83 209.39 74.01 C 205.94 75.47 202.93 77.73 199.75 79.68 M 107.62 145.56 C 107.70 179.72 107.69 213.89 107.63 248.05 C 111.75 246.34 115.09 243.30 118.79 240.88 C 127.34 235.10 135.71 229.06 144.33 223.38 C 144.36 197.43 144.24 171.48 144.39 145.53 C 132.13 145.52 119.88 145.45 107.62 145.56 Z" />
</g>
<g id="#050607ff">
<path fill="#050607" opacity="1.00" d=" M 130.89 10.94 C 135.53 8.31 139.72 4.90 144.62 2.77 C 144.59 40.56 144.56 78.35 144.64 116.14 C 134.76 116.47 124.88 116.17 115.00 116.31 C 112.55 116.39 110.10 116.22 107.73 115.59 C 107.93 85.60 107.82 55.61 107.78 25.62 C 115.29 20.42 123.22 15.87 130.89 10.94 Z" />
<path fill="#050607" opacity="1.00" d=" M 42.23 96.71 C 54.35 89.14 66.38 81.41 78.61 74.01 C 78.62 104.92 78.57 135.82 78.63 166.72 C 68.88 173.67 58.89 180.29 49.09 187.16 C 46.95 188.75 44.73 190.25 42.33 191.41 C 42.18 159.84 42.37 128.28 42.23 96.71 Z" />
<path fill="#050607" opacity="1.00" d=" M 199.75 79.68 C 202.93 77.73 205.94 75.47 209.39 74.01 C 209.33 104.83 209.31 135.65 209.40 166.47 C 197.16 175.01 184.84 183.42 172.56 191.89 C 172.60 160.13 172.58 128.37 172.57 96.61 C 181.65 91.01 190.68 85.30 199.75 79.68 Z" />
<path fill="#050607" opacity="1.00" d=" M 107.62 145.56 C 119.88 145.45 132.13 145.52 144.39 145.53 C 144.24 171.48 144.36 197.43 144.33 223.38 C 135.71 229.06 127.34 235.10 118.79 240.88 C 115.09 243.30 111.75 246.34 107.63 248.05 C 107.69 213.89 107.70 179.72 107.62 145.56 Z" />
</g>
</svg>

<?xml version="1.0" encoding="utf-8"?>
<!-- Generator: Adobe Illustrator 26.0.3, SVG Export Plug-In . SVG Version: 6.00 Build 0)  -->
<svg version="1.1" id="Layer_1" xmlns="http://www.w3.org/2000/svg" xmlns:xlink="http://www.w3.org/1999/xlink" x="0px" y="0px"
	 viewBox="0 0 250 250" style="enable-background:new 0 0 250 250;" xml:space="preserve">
<style type="text/css">
	.st0{fill:#050607;}
</style>
<g id="_x23_050607ff">
	<path class="st0" d="M130.9,10.9c4.6-2.6,8.8-6,13.7-8.2c0,37.8-0.1,75.6,0,113.4c-9.9,0.3-19.8,0-29.6,0.2
		c-2.4,0.1-4.9-0.1-7.3-0.7c0.2-30,0.1-60,0-90C115.3,20.4,123.2,15.9,130.9,10.9z"/>
	<path class="st0" d="M42.2,96.7C54.3,89.1,66.4,81.4,78.6,74c0,30.9,0,61.8,0,92.7c-9.8,6.9-19.7,13.6-29.5,20.4
		c-2.1,1.6-4.4,3.1-6.8,4.2C42.2,159.8,42.4,128.3,42.2,96.7z"/>
	<path class="st0" d="M199.8,79.7c3.2-1.9,6.2-4.2,9.6-5.7c-0.1,30.8-0.1,61.6,0,92.5c-12.2,8.5-24.6,16.9-36.8,25.4
		c0-31.8,0-63.5,0-95.3C181.6,91,190.7,85.3,199.8,79.7z"/>
	<path class="st0" d="M107.6,145.6c12.3-0.1,24.5,0,36.8,0c-0.1,25.9,0,51.9-0.1,77.9c-8.6,5.7-17,11.7-25.5,17.5
		c-3.7,2.4-7,5.5-11.2,7.2C107.7,213.9,107.7,179.7,107.6,145.6z"/>
</g>
</svg>
